X:1
T:I'm Sorry. I'm Sorry
M:4/4
L:1/8
K:G
 D2| G2 EG d2 eB| A3/2- B/2 de d2 z D| G2 EG d2 eB| A3/2- B/2 ce d2|\
 D2| G2 EG d2 eB| A3/2- B/2 ce d2 D2| G2 AB e2 dB| A3/2- G/2 GG G2||\
